configs/network-icons/polygon-short.svg

<svg width="30" height="30" viewBox="0 0 30 30" fill="none" xmlns="http://www.w3.org/2000/svg">
<path d="M21.1779 19.9396L27.61 16.2165C27.9671 16.0187 28.1654 15.6626 28.1654 15.267V7.82088C28.1654 7.42527 27.9671 7.06923 27.61 6.87143L21.1779 3.14835C20.8208 2.95055 20.424 2.95055 20.067 3.14835L13.6305 6.87143C13.2734 7.06923 13.075 7.42527 13.075 7.82088V21.0868L8.54743 23.7022L4.01985 21.0868V15.9L8.54743 13.2846L11.5276 14.9857V11.5L9.1029 10.1154C8.9442 10.0363 8.74581 9.95714 8.54743 9.95714C8.34904 9.95714 8.15066 9.9967 7.99195 10.1154L1.55548 13.8429C1.19838 14.0407 1 14.3967 1 14.7923V22.2385C1 22.6341 1.19838 22.9901 1.55548 23.1879L7.98754 26.911C8.34463 27.1088 8.7414 27.1088 9.09849 26.911L15.5306 23.1879C15.8877 22.9901 16.086 22.6341 16.086 22.2385V8.97253L16.1654 8.93297L20.618 6.35714L25.1456 8.97253V14.1593L20.618 16.7703L17.6378 15.0692V18.5549L20.0625 19.9396C20.4196 20.1374 20.8164 20.1374 21.1779 19.9396Z" fill="url(#paint0_linear_10548_21283)"/>
<defs>
<linearGradient id="paint0_linear_10548_21283" x1="0.955488" y1="22.9697" x2="26.8119" y2="7.81585" gradientUnits="userSpaceOnUse">
<stop stop-color="#A726C1"/>
<stop offset="0.8784" stop-color="#803BDF"/>
<stop offset="1" stop-color="#7B3FE4"/>
</linearGradient>
</defs>
</svg>

<svg xmlns="http://www.w3.org/2000/svg" fill="none" viewBox="0 0 30 30">
  <path fill="url(#polygon-short_svg__a)" d="m21.178 19.94 6.432-3.724c.357-.197.555-.553.555-.949V7.821c0-.396-.198-.752-.555-.95l-6.432-3.723a1.114 1.114 0 0 0-1.111 0L13.63 6.871a1.065 1.065 0 0 0-.555.95v13.266l-4.528 2.615-4.527-2.615V15.9l4.527-2.615 2.98 1.7V11.5l-2.424-1.385c-.159-.079-.357-.158-.556-.158a.917.917 0 0 0-.555.158l-6.437 3.728a1.065 1.065 0 0 0-.555.95v7.445c0 .396.198.752.555.95l6.433 3.723c.357.198.753.198 1.11 0l6.433-3.723c.357-.198.555-.554.555-.95V8.973l.08-.04 4.452-2.576 4.528 2.616v5.186l-4.528 2.611-2.98-1.7v3.485l2.424 1.385c.358.197.754.197 1.116 0Z"/>
  <defs>
    <linearGradient id="polygon-short_svg__a" x1=".955" x2="26.812" y1="22.97" y2="7.816" gradientUnits="userSpaceOnUse">
      <stop stop-color="#A726C1"/>
      <stop offset=".878" stop-color="#803BDF"/>
      <stop offset="1" stop-color="#7B3FE4"/>
    </linearGradient>
  </defs>
</svg>
